src/img/icons/soc_1.svg

<svg width="40" height="40" viewBox="0 0 40 40" fill="none" xmlns="http://www.w3.org/2000/svg">
<g id="4">
<rect id="Rectangle 18623" x="0.5" y="0.5" width="39" height="39" rx="19.5" stroke="#E4DEE0"/>
<g id="Vector">
<path d="M19.9968 13.4416C22.1333 13.4416 22.3841 13.4511 23.2286 13.4892C24.0095 13.5241 24.4317 13.6543 24.7143 13.7654C25.0889 13.9115 25.3556 14.083 25.6349 14.3624C25.9143 14.6418 26.0889 14.9085 26.2317 15.2832C26.3397 15.5658 26.473 15.9881 26.5079 16.7692C26.546 17.6138 26.5556 17.8647 26.5556 20.0016C26.5556 22.1385 26.546 22.3894 26.5079 23.234C26.473 24.0151 26.3429 24.4374 26.2317 24.72C26.0857 25.0947 25.9143 25.3614 25.6349 25.6408C25.3556 25.9202 25.0889 26.0949 24.7143 26.2377C24.4317 26.3457 24.0095 26.4791 23.2286 26.514C22.3841 26.5521 22.1333 26.5616 19.9968 26.5616C17.8603 26.5616 17.6095 26.5521 16.7651 26.514C15.9841 26.4791 15.5619 26.3489 15.2794 26.2377C14.9048 26.0917 14.6381 25.9202 14.3587 25.6408C14.0794 25.3614 13.9048 25.0947 13.7619 24.72C13.654 24.4374 13.5206 24.0151 13.4857 23.234C13.4476 22.3894 13.4381 22.1385 13.4381 20.0016C13.4381 17.8647 13.4476 17.6138 13.4857 16.7692C13.5206 15.9881 13.6508 15.5658 13.7619 15.2832C13.9079 14.9085 14.0794 14.6418 14.3587 14.3624C14.6381 14.083 14.9048 13.9083 15.2794 13.7654C15.5619 13.6575 15.9841 13.5241 16.7651 13.4892C17.6095 13.4479 17.8635 13.4416 19.9968 13.4416ZM19.9968 12C17.8254 12 17.5524 12.0095 16.6984 12.0476C15.8476 12.0857 15.2667 12.2223 14.7587 12.4191C14.2317 12.6223 13.7873 12.8986 13.3429 13.3431C12.8984 13.7877 12.6254 14.2354 12.419 14.7593C12.2222 15.2673 12.0857 15.8484 12.0476 16.7025C12.0095 17.5535 12 17.8266 12 19.9984C12 22.1703 12.0095 22.4433 12.0476 23.2975C12.0857 24.1484 12.2222 24.7295 12.419 25.2407C12.6222 25.7678 12.8984 26.2123 13.3429 26.6569C13.7873 27.1014 14.2349 27.3745 14.7587 27.5809C15.2667 27.7777 15.8476 27.9143 16.7016 27.9524C17.5556 27.9905 17.8254 28 20 28C22.1746 28 22.4444 27.9905 23.2984 27.9524C24.1492 27.9143 24.7302 27.7777 25.2413 27.5809C25.7683 27.3777 26.2127 27.1014 26.6571 26.6569C27.1016 26.2123 27.3746 25.7646 27.581 25.2407C27.7778 24.7327 27.9143 24.1516 27.9524 23.2975C27.9905 22.4433 28 22.1734 28 19.9984C28 17.8234 27.9905 17.5535 27.9524 16.6993C27.9143 15.8484 27.7778 15.2673 27.581 14.7561C27.3778 14.229 27.1016 13.7845 26.6571 13.3399C26.2127 12.8954 25.7651 12.6223 25.2413 12.416C24.7333 12.2191 24.1524 12.0826 23.2984 12.0445C22.4413 12.0095 22.1683 12 19.9968 12Z" fill="white"/>
<path d="M19.9968 13.4416C22.1333 13.4416 22.3841 13.4511 23.2286 13.4892C24.0095 13.5241 24.4317 13.6543 24.7143 13.7654C25.0889 13.9115 25.3556 14.083 25.6349 14.3624C25.9143 14.6418 26.0889 14.9085 26.2317 15.2832C26.3397 15.5658 26.473 15.9881 26.5079 16.7692C26.546 17.6138 26.5556 17.8647 26.5556 20.0016C26.5556 22.1385 26.546 22.3894 26.5079 23.234C26.473 24.0151 26.3429 24.4374 26.2317 24.72C26.0857 25.0947 25.9143 25.3614 25.6349 25.6408C25.3556 25.9202 25.0889 26.0949 24.7143 26.2377C24.4317 26.3457 24.0095 26.4791 23.2286 26.514C22.3841 26.5521 22.1333 26.5616 19.9968 26.5616C17.8603 26.5616 17.6095 26.5521 16.7651 26.514C15.9841 26.4791 15.5619 26.3489 15.2794 26.2377C14.9048 26.0917 14.6381 25.9202 14.3587 25.6408C14.0794 25.3614 13.9048 25.0947 13.7619 24.72C13.654 24.4374 13.5206 24.0151 13.4857 23.234C13.4476 22.3894 13.4381 22.1385 13.4381 20.0016C13.4381 17.8647 13.4476 17.6138 13.4857 16.7692C13.5206 15.9881 13.6508 15.5658 13.7619 15.2832C13.9079 14.9085 14.0794 14.6418 14.3587 14.3624C14.6381 14.083 14.9048 13.9083 15.2794 13.7654C15.5619 13.6575 15.9841 13.5241 16.7651 13.4892C17.6095 13.4479 17.8635 13.4416 19.9968 13.4416ZM19.9968 12C17.8254 12 17.5524 12.0095 16.6984 12.0476C15.8476 12.0857 15.2667 12.2223 14.7587 12.4191C14.2317 12.6223 13.7873 12.8986 13.3429 13.3431C12.8984 13.7877 12.6254 14.2354 12.419 14.7593C12.2222 15.2673 12.0857 15.8484 12.0476 16.7025C12.0095 17.5535 12 17.8266 12 19.9984C12 22.1703 12.0095 22.4433 12.0476 23.2975C12.0857 24.1484 12.2222 24.7295 12.419 25.2407C12.6222 25.7678 12.8984 26.2123 13.3429 26.6569C13.7873 27.1014 14.2349 27.3745 14.7587 27.5809C15.2667 27.7777 15.8476 27.9143 16.7016 27.9524C17.5556 27.9905 17.8254 28 20 28C22.1746 28 22.4444 27.9905 23.2984 27.9524C24.1492 27.9143 24.7302 27.7777 25.2413 27.5809C25.7683 27.3777 26.2127 27.1014 26.6571 26.6569C27.1016 26.2123 27.3746 25.7646 27.581 25.2407C27.7778 24.7327 27.9143 24.1516 27.9524 23.2975C27.9905 22.4433 28 22.1734 28 19.9984C28 17.8234 27.9905 17.5535 27.9524 16.6993C27.9143 15.8484 27.7778 15.2673 27.581 14.7561C27.3778 14.229 27.1016 13.7845 26.6571 13.3399C26.2127 12.8954 25.7651 12.6223 25.2413 12.416C24.7333 12.2191 24.1524 12.0826 23.2984 12.0445C22.4413 12.0095 22.1683 12 19.9968 12Z" fill="#AE9BA5"/>
<path d="M19.9968 15.8928C17.7302 15.8928 15.8889 17.7313 15.8889 20.0016C15.8889 22.2719 17.727 24.1103 19.9968 24.1103C22.2667 24.1103 24.1048 22.2719 24.1048 20.0016C24.1048 17.7313 22.2667 15.8928 19.9968 15.8928ZM19.9968 22.6656C18.5238 22.6656 17.3302 21.4717 17.3302 19.9984C17.3302 18.5251 18.5238 17.3312 19.9968 17.3312C21.4698 17.3312 22.6635 18.5251 22.6635 19.9984C22.6635 21.4717 21.4698 22.6656 19.9968 22.6656Z" fill="white"/>
<path d="M19.9968 15.8928C17.7302 15.8928 15.8889 17.7313 15.8889 20.0016C15.8889 22.2719 17.727 24.1103 19.9968 24.1103C22.2667 24.1103 24.1048 22.2719 24.1048 20.0016C24.1048 17.7313 22.2667 15.8928 19.9968 15.8928ZM19.9968 22.6656C18.5238 22.6656 17.3302 21.4717 17.3302 19.9984C17.3302 18.5251 18.5238 17.3312 19.9968 17.3312C21.4698 17.3312 22.6635 18.5251 22.6635 19.9984C22.6635 21.4717 21.4698 22.6656 19.9968 22.6656Z" fill="#AE9BA5"/>
<path d="M24.2667 16.6866C24.7962 16.6866 25.2254 16.2573 25.2254 15.7277C25.2254 15.1981 24.7962 14.7688 24.2667 14.7688C23.7372 14.7688 23.3079 15.1981 23.3079 15.7277C23.3079 16.2573 23.7372 16.6866 24.2667 16.6866Z" fill="white"/>
<path d="M24.2667 16.6866C24.7962 16.6866 25.2254 16.2573 25.2254 15.7277C25.2254 15.1981 24.7962 14.7688 24.2667 14.7688C23.7372 14.7688 23.3079 15.1981 23.3079 15.7277C23.3079 16.2573 23.7372 16.6866 24.2667 16.6866Z" fill="#AE9BA5"/>
</g>
</g>
</svg>

<svg xmlns="http://www.w3.org/2000/svg" width="40" height="40" fill="none">
  <rect width="39" height="39" x=".5" y=".5" stroke="#E4DEE0" rx="19.5"/>
  <path fill="#fff" d="M19.997 13.442c2.136 0 2.387.01 3.232.047.78.035 1.203.165 1.485.276.375.146.642.318.92.597.28.28.455.546.598.921.108.283.241.705.276 1.486.038.845.048 1.096.048 3.233s-.01 2.387-.048 3.232c-.035.781-.165 1.203-.276 1.486a2.481 2.481 0 0 1-.597.92c-.28.28-.546.455-.92.598-.283.108-.706.241-1.486.276-.845.038-1.096.048-3.232.048-2.137 0-2.387-.01-3.232-.048-.78-.035-1.203-.165-1.486-.276a2.482 2.482 0 0 1-.92-.597 2.445 2.445 0 0 1-.597-.921c-.108-.283-.241-.705-.276-1.486-.038-.845-.048-1.096-.048-3.232 0-2.137.01-2.388.048-3.233.035-.78.165-1.203.276-1.486.146-.374.317-.641.597-.92.28-.28.546-.455.92-.598.283-.107.705-.24 1.486-.276.845-.041 1.098-.047 3.232-.047Zm0-1.442c-2.172 0-2.445.01-3.299.048-.85.038-1.431.174-1.94.371-.526.203-.97.48-1.415.924a3.969 3.969 0 0 0-.924 1.416c-.197.508-.333 1.09-.371 1.944-.039.85-.048 1.124-.048 3.295 0 2.172.01 2.445.048 3.3.038.85.174 1.432.371 1.943a3.9 3.9 0 0 0 .924 1.416c.444.444.892.718 1.416.924.508.197 1.089.333 1.943.371.854.038 1.123.048 3.298.048s2.444-.01 3.298-.048c.851-.038 1.432-.174 1.943-.371.527-.203.972-.48 1.416-.924.445-.445.718-.892.924-1.416.197-.508.333-1.09.371-1.944.038-.854.048-1.124.048-3.299s-.01-2.445-.048-3.299c-.038-.85-.174-1.432-.371-1.943a3.9 3.9 0 0 0-.924-1.416 3.965 3.965 0 0 0-1.416-.924c-.508-.197-1.089-.333-1.943-.372-.857-.035-1.13-.044-3.301-.044Z"/>
  <path fill="#AE9BA5" d="M19.997 13.442c2.136 0 2.387.01 3.232.047.78.035 1.203.165 1.485.276.375.146.642.318.92.597.28.28.455.546.598.921.108.283.241.705.276 1.486.038.845.048 1.096.048 3.233s-.01 2.387-.048 3.232c-.035.781-.165 1.203-.276 1.486a2.481 2.481 0 0 1-.597.92c-.28.28-.546.455-.92.598-.283.108-.706.241-1.486.276-.845.038-1.096.048-3.232.048-2.137 0-2.387-.01-3.232-.048-.78-.035-1.203-.165-1.486-.276a2.482 2.482 0 0 1-.92-.597 2.445 2.445 0 0 1-.597-.921c-.108-.283-.241-.705-.276-1.486-.038-.845-.048-1.096-.048-3.232 0-2.137.01-2.388.048-3.233.035-.78.165-1.203.276-1.486.146-.374.317-.641.597-.92.28-.28.546-.455.92-.598.283-.107.705-.24 1.486-.276.845-.041 1.098-.047 3.232-.047Zm0-1.442c-2.172 0-2.445.01-3.299.048-.85.038-1.431.174-1.94.371-.526.203-.97.48-1.415.924a3.969 3.969 0 0 0-.924 1.416c-.197.508-.333 1.09-.371 1.944-.039.85-.048 1.124-.048 3.295 0 2.172.01 2.445.048 3.3.038.85.174 1.432.371 1.943a3.9 3.9 0 0 0 .924 1.416c.444.444.892.718 1.416.924.508.197 1.089.333 1.943.371.854.038 1.123.048 3.298.048s2.444-.01 3.298-.048c.851-.038 1.432-.174 1.943-.371.527-.203.972-.48 1.416-.924.445-.445.718-.892.924-1.416.197-.508.333-1.09.371-1.944.038-.854.048-1.124.048-3.299s-.01-2.445-.048-3.299c-.038-.85-.174-1.432-.371-1.943a3.9 3.9 0 0 0-.924-1.416 3.965 3.965 0 0 0-1.416-.924c-.508-.197-1.089-.333-1.943-.372-.857-.035-1.13-.044-3.301-.044Z"/>
  <path fill="#fff" d="M19.997 15.893a4.109 4.109 0 1 0 .002 8.218 4.109 4.109 0 0 0-.002-8.218Zm0 6.773a2.667 2.667 0 1 1 0-5.334 2.667 2.667 0 0 1 0 5.334Z"/>
  <path fill="#AE9BA5" d="M19.997 15.893a4.109 4.109 0 1 0 .002 8.218 4.109 4.109 0 0 0-.002-8.218Zm0 6.773a2.667 2.667 0 1 1 0-5.334 2.667 2.667 0 0 1 0 5.334Z"/>
  <path fill="#fff" d="M24.267 16.687a.959.959 0 1 0 0-1.918.959.959 0 0 0 0 1.918Z"/>
  <path fill="#AE9BA5" d="M24.267 16.687a.959.959 0 1 0 0-1.918.959.959 0 0 0 0 1.918Z"/>
</svg>
